X:1
T:Non piu guerra
T:Non piu guerra
T:Giulio Caccini
T:Source : Le nuove Musische di G.Caccini detto Romano---Firenze---G.Marescotti---1601. Editor : André Vierendeels (22/06/15).
T:-natural
T:Notes : Original clefs : C4, F4 Editorial accidentals above the staff Figures in BC are notated in original print 
C:Giulio Caccini
%%score 1 2
L:1/8
Q:1/4=76
M:2/2
K:F
V:1 treble-8 nm="Tenor" snm="T"
V:2 bass nm="BC" snm="BC"
V:1
 B2 c2 d4 | G2 ^F2 GA>Bc | A4 z2 d2 | ^c2 d3 d B/A/B/c/ | A4 A4 | A2 ^F2 A2 GF | GDEF G4 | A8 | %8
w: Non piu guer-|ra pie- ta- * * *|te, pie-|ta- te'oc- chi miei _ _ _|bel- li'oc-|chi mie- i tri- on-|fan- ti'a che v'ar- ma-|te'|
 B2 G2 B2 BA | G>GAB c4 | A8 | d2 B2 d2 cc | B4 A4 | c2 A2 c2 BA | G>FGA B4 | A4 A4- | A2 G2 F4- | %17
w: con- tr'un cor ch'e gia|pre- so'e vi si ren-|de,|an- ci- de- te'i ru-|bel- li,|an- ci- de- te chi|s'ar- ma'e si di- fen-|de, non|_ chi vin-|
 F2 E2 E>F G2 | E8 | D4 z2 G2 | F2 D2 A3 G | F/G/A DE F/G/E F/E/F/D/ | E4 z2 ^c2 | d2 A2 d2 c2 | %24
w: * to v'a- * *|do-|ra, vo-|le- te voi ch'io|mo- * * * * * * * * * * *|ra? Vo-|le- te voi ch'io|
 Bc dA B/c/A B/A/B/G/ | A4 z2 ^F2 | G2 D2 G4- |"^-natural" GEFG A4- | A2 E2 ^F4 | ^F2 DD F4 | %30
w: mo- * * * * * * * * * *|ra? Mor-|ri'o pur vo-|* stro'e del mo- rir|_ t'af- fan-|no sen- ti- ro-|
 G2 GA =B4 | c2 G2 c4 | A2 A2 d4 | G4 A4- | A4 B2 A/B/c | A8 | G4 z2 G2 | F2 D2 A2 E2 | F6 E/F/G | %39
w: si, sen- ti- ro|si ma vo-|stro, ma vo-|stro sa-|* ra'l _ _ _|dan-|no, vo-|le- te voi ch'io|mo- * * *|
 E4 z2 ^c2 | d2 A2 d2 ^F2 | G>A B>c B>c d2 | A4 z2 ^F2 | G2 D2 G4- |"^-natural" GEF>G A4- | %45
w: ra, vo-|le- te voi ch'io|mo- * * * * * *|ra mor-|ro pur vo-|* stro'e del mo- rir|
 A2 E2 ^F4 | ^F2 DE F4 | G2 GA =B4 | c2 G2 c4 | A2 A2 d4 | G4 c4- | c4 B2 A/B/c | A8 | G8 |] %54
w: _ l'af- fan-|no, sen- ti- ro|si, sen- ti- ro|si ma vo-|stro, ma vo-|stro sa-|* ra'l _ _ _|dan-|no.|
V:2
 G,2 F,2 B,,4 |"^b""^#" C,2 D,2 G,,4 | D,4 G,4 | A,2 ^F,2 G,4 |"^11""^#10" A,2 A,2 D,4 | D,,8 | %6
 G,,4 G,4 | D,8 | G,,8 | C,8 | F,,8 | B,,4 B,2 A,2 |"^-natural6" G,2 G,2 F,4 | F,,8 | C,4 G,,4 | %15
"^-natural" D,4 A,,2 =B,,2 |"^6" ^C,4 D,4 | G,,4 G,,4 |"^-natural""^11""^-natural10" A,,4 A,,4 | %19
 D,4 G,,4 | D,4 ^C,4 | D,4 D,,4 | A,,4 A,,4 | D,4 D,4 | G,,4 G,4 | D,4 D,4 |"^-natural" G,,4 G,,4 | %27
 C,4 F,,2 G,,2 | A,,2 A,,2 D,4 | D,,4 D,4 |"^-natural" G,,4 G,4 | C,4 A,,4 |"^6" D,4 =B,,4 | %33
"^#" C,4 A,,4 | D,4 G,,4 |"^11""^#10" D,4 D,,4 |"^-natural""^b" G,,4 G,,4 |"^6" D,4 ^C,4 | %38
 D,4 D,,4 |"^#" A,,4 A,,4 | D,4 D,,4 | G,,8 |"^11""^#10" D,4 D,,4 |"^-natural" G,,8 | %44
 C,4 F,,2 G,,2 |"^11""^#10" A,,2 A,,2 D,4 | D,,4 D,4 |"^-natural" G,,4 G,4 | C,4 A,,4 | %49
"^6" D,4 =B,,4 | C,4 A,,4 |"^#10""^11" D,4 D,4 |"^11""^#10" D,4 D,4 | G,,8 |] %54

